svgs/sharp-solid/bridge-suspension.svg

<svg xmlns="http://www.w3.org/2000/svg" viewBox="0 0 640 512"><!--! Font Awesome Pro 6.6.0 by @fontawesome - https://fontawesome.com License - https://fontawesome.com/license (Commercial License) Copyright 2024 Fonticons, Inc. --><path d="M120 8L105.2 8 98.5 21.3c-21.1 42.2-56.8 71.4-96 97.9l26.9 39.8C51.7 143.9 75 126.7 96 105.4L96 256l-80 0L0 256l0 16 0 64 0 16 16 0 80 0 0 144 0 16 16 0 64 0 16 0 0-16 0-144 256 0 0 144 0 16 16 0 64 0 16 0 0-16 0-144 80 0 16 0 0-16 0-64 0-16-16 0-80 0 0-150.6c21 21.3 44.3 38.5 66.6 53.6l26.9-39.8c-39.2-26.5-74.9-55.7-96-97.9L534.8 8 520 8 504 8 490.1 8l-6.9 12.1C447.6 82.4 389.4 120 320 120s-127.6-37.6-163.2-99.9L149.9 8 136 8 120 8zm360 94.4L480 256l-40 0 0-122.1c14.4-9 27.7-19.6 40-31.6zM200 256l-40 0 0-153.6c12.3 12 25.6 22.6 40 31.6L200 256zm96 0l-48 0 0-99.5c15.3 5.1 31.3 8.5 48 10.3l0 89.2zm96 0l-48 0 0-89.2c16.7-1.7 32.7-5.2 48-10.2l0 99.5z"/></svg>

<svg xmlns="http://www.w3.org/2000/svg" viewBox="0 0 640 512"><!--! Font Awesome Pro 6.4.0 by @fontawesome - https://fontawesome.com License - https://fontawesome.com/license (Commercial License) Copyright 2023 Fonticons, Inc. --><path d="M120 8H105.2L98.5 21.3c-21.1 42.2-56.8 71.4-96 97.9l26.9 39.8C51.7 143.9 75 126.7 96 105.4V256H16 0v16 64 16H16 96V496v16h16 64 16V496 352H448V496v16h16 64 16V496 352h80 16V336 272 256H624 544V105.4c21 21.3 44.3 38.5 66.6 53.6l26.9-39.8c-39.2-26.5-74.9-55.7-96-97.9L534.8 8H520 504 490.1l-6.9 12.1C447.6 82.4 389.4 120 320 120s-127.6-37.6-163.2-99.9L149.9 8H136 120zm360 94.4V256H440V133.9c14.4-9 27.7-19.6 40-31.6zM200 256H160V102.4c12.3 12 25.6 22.6 40 31.6V256zm96 0H248V156.5c15.3 5.1 31.3 8.5 48 10.3V256zm96 0H344V166.8c16.7-1.7 32.7-5.2 48-10.2V256z"/></svg>
